src/distro-icons/ubuntu-mate.svg

<svg width="512" height="512" fill="none" xmlns="http://www.w3.org/2000/svg">
<circle cx="256" cy="256" r="256" fill="#fff"/>
<path fill-rule="evenodd" clip-rule="evenodd" d="M248.81.07C110.489 3.376.109 116.526 0 255.124c-.145 181.654 181.527 305.291 350.496 238.532 117.602-46.465 183.621-173.67 154.26-297.228-1.774-7.467-3.09-12.182-5.844-20.944-16.9-53.753-57.66-105.548-107.646-136.79-5.919-3.699-8.899-5.368-21.046-11.786C336.412 9.048 291.216-.944 248.81.07Zm69.168 80.507a54021.586 54021.586 0 0 0 46.847 27.669c24.448 14.432 28.402 16.769 30.766 18.184 2.719 1.627 4.313.447-19.743 14.608a77638.73 77638.73 0 0 0-67.533 39.795c-4.103 2.422-8.009 4.7-8.68 5.06l-1.223.653V69.005l2.067 1.225c1.137.673 9.011 5.33 17.499 10.347Zm-48.044 19.46c8.132.74 7.519-.201 7.519 11.515 0 12.165.795 11.224-8.561 10.132-55.685-6.495-111.495 25.327-136 77.545l-2.855 6.083-4.959-2.975a857.407 857.407 0 0 0-8.956-5.293c-4.801-2.785-4.758-2.223-.768-10.333 7.304-14.84 23.339-36.921 31.382-43.218.82-.641 2.854-2.457 4.521-4.033 29.77-28.162 75.497-43.352 118.677-39.423Zm.646 53.662c2.728.475 5.27.975 5.649 1.112.519.186.689 2.913.689 11.079v10.834l-1.791-.368c-42.241-8.675-82.395 12.911-96.056 51.64-1.913 5.42-1.482 5.309-7.222 1.882a858.353 858.353 0 0 0-9.136-5.368c-4.865-2.807-4.748-2.515-2.863-7.154 17.887-44.023 65.697-71.508 110.73-63.657Zm113.453 12.554c32.939 46.243 37.397 108.792 11.401 159.956-6.418 12.633-14.254 24.354-15.867 23.735-4.726-1.813-17.75-10.448-17.105-11.341 20.191-27.937 27.743-50.628 27.694-83.203-.046-29.879-11.176-63.86-26.31-80.326-1.421-1.546-1.905-1.118 8.041-7.132 10.017-6.059 9.123-5.935 12.146-1.689Zm-47.477 25.628c2.109 2.244 7.076 9.752 9.96 15.05 19.125 35.14 15.975 78.451-8.038 110.513l-4.3 5.742-1.805-.963c-5.3-2.826-16.861-9.842-16.867-10.236-.004-.252 1.446-2.236 3.222-4.409 24.585-30.092 24.699-74.239.267-103.247-3.14-3.728-3.606-3.073 6.286-8.86 9.856-5.767 9.375-5.614 11.275-3.59ZM86.12 203.948c5.968 3.529 14.074 8.33 18.014 10.669a5131.664 5131.664 0 0 0 16.81 9.911c5.305 3.112 10.761 6.342 12.125 7.176 1.365.833 7.317 4.363 13.228 7.845 23.767 13.996 27.006 15.956 27.006 16.326 0 .212-2.294 1.734-5.098 3.38a3679.597 3679.597 0 0 0-10.334 6.099c-9.466 5.61-26.491 15.647-41.06 24.206-7.882 4.631-15.446 9.099-16.81 9.93-6.364 3.88-24.306 14.388-25.06 14.676-.885.34-1.36-115.385-.476-116.268.551-.553.072-.802 11.655 6.05Zm92.12 77.493c11.403 38.067 55.756 63.473 94.544 54.157 1.819-.437 3.493-.803 3.721-.814 1.005-.047.461 21.937-.552 22.251-6.312 1.954-24.188 2.541-34.321 1.127-36.45-5.083-68.215-29.77-81.572-63.394-2.124-5.347-2.798-4.405 7.467-10.444 10.243-6.025 9.806-5.907 10.713-2.883Zm-45.492 30.736c24.473 53.825 81.761 85.13 141.552 77.349l2.618-.34v10.782c0 9.789-.088 10.806-.965 11.071-.53.158-4.684.578-9.231.931-62.223 4.827-123.073-29.993-151.144-86.489-4.382-8.82-4.87-7.624 5.642-13.866 9.794-5.814 8.603-5.872 11.528.562Zm192.946 30.87a18592.274 18592.274 0 0 1 30.864 18.179 9212.582 9212.582 0 0 0 16.534 9.76c5.154 3.034 12.656 7.453 16.673 9.82 7.043 4.153 8.263 5.28 6.458 5.973-.465.177-5.735 3.217-11.712 6.753a41634.479 41634.479 0 0 1-24.37 14.404 38877.115 38877.115 0 0 0-23.975 14.168c-5.76 3.406-14.812 8.75-20.117 11.873a3378.074 3378.074 0 0 0-13.193 7.796c-1.951 1.164-3.749 2.118-3.996 2.118-.246 0-.448-26.31-.448-58.467v-58.465l1.792 1.076c.985.591 12.456 7.347 25.49 15.012Z" fill="#84A454"/>
</svg>

<svg width="512" height="512" viewBox="0 0 512 512" fill="none" xmlns="http://www.w3.org/2000/svg">
<circle cx="256" cy="256" r="256" fill="white"/>
<path fill-rule="evenodd" clip-rule="evenodd" d="M248.81 0.0703967C110.489 3.37588 0.108937 116.526 8.63529e-05 255.124C-0.144589 436.778 181.527 560.415 350.496 493.656C468.098 447.191 534.117 319.986 504.756 196.428C502.982 188.961 501.666 184.246 498.912 175.484C482.012 121.731 441.252 69.9361 391.266 38.6945C385.347 34.995 382.367 33.3264 370.22 26.9083C336.412 9.04714 291.216 -0.943707 248.81 0.0703967ZM317.978 80.5773C333.797 89.9302 335.525 90.9512 364.825 108.246C389.273 122.678 393.227 125.015 395.591 126.43C398.31 128.057 399.904 126.877 375.848 141.038C352.368 154.859 319.181 174.415 308.315 180.833C304.212 183.255 300.306 185.533 299.635 185.893L298.412 186.546V127.776V69.0046L300.479 70.2296C301.616 70.9033 309.49 75.5591 317.978 80.5773ZM269.934 100.037C278.066 100.777 277.453 99.8356 277.453 111.552C277.453 123.717 278.248 122.776 268.892 121.684C213.207 115.189 157.397 147.011 132.892 199.229L130.037 205.312L125.078 202.337C122.35 200.7 118.32 198.319 116.122 197.044C111.321 194.259 111.364 194.821 115.354 186.711C122.658 171.871 138.693 149.79 146.736 143.493C147.556 142.852 149.59 141.036 151.257 139.46C181.027 111.298 226.754 96.1085 269.934 100.037ZM270.58 153.699C273.308 154.174 275.85 154.674 276.229 154.811C276.748 154.997 276.918 157.724 276.918 165.89V176.724L275.127 176.356C232.886 167.681 192.732 189.267 179.071 227.996C177.158 233.416 177.589 233.305 171.849 229.878C169.163 228.274 165.051 225.859 162.713 224.51C157.848 221.703 157.965 221.995 159.85 217.356C177.737 173.333 225.547 145.848 270.58 153.699ZM384.033 166.253C416.972 212.496 421.43 275.045 395.434 326.209C389.016 338.842 381.18 350.563 379.567 349.944C374.841 348.131 361.817 339.496 362.462 338.603C382.653 310.666 390.205 287.975 390.156 255.4C390.11 225.521 378.98 191.54 363.846 175.074C362.425 173.528 361.941 173.956 371.887 167.942C381.904 161.883 381.01 162.007 384.033 166.253ZM336.556 191.881C338.665 194.125 343.632 201.633 346.516 206.931C365.641 242.071 362.491 285.382 338.478 317.444L334.178 323.186L332.373 322.223C327.073 319.397 315.512 312.381 315.506 311.987C315.502 311.735 316.952 309.751 318.728 307.578C343.313 277.486 343.427 233.339 318.995 204.331C315.855 200.603 315.389 201.258 325.281 195.471C335.137 189.704 334.656 189.857 336.556 191.881ZM86.1204 203.948C92.0879 207.477 100.194 212.278 104.134 214.617C108.075 216.955 115.64 221.415 120.944 224.528C126.249 227.64 131.705 230.87 133.069 231.704C134.434 232.537 140.386 236.067 146.297 239.549C170.064 253.545 173.303 255.505 173.303 255.875C173.303 256.087 171.009 257.609 168.205 259.255C165.401 260.903 160.751 263.646 157.871 265.354C148.405 270.964 131.38 281.001 116.811 289.56C108.929 294.191 101.365 298.659 100.001 299.49C93.6366 303.37 75.6955 313.878 74.9418 314.166C74.0558 314.506 73.5805 198.781 74.4651 197.898C75.0162 197.345 74.5367 197.096 86.1204 203.948ZM178.24 281.441C189.643 319.508 233.996 344.914 272.784 335.598C274.603 335.161 276.277 334.795 276.505 334.784C277.51 334.737 276.966 356.721 275.953 357.035C269.641 358.989 251.765 359.576 241.632 358.162C205.182 353.079 173.417 328.392 160.06 294.768C157.936 289.421 157.262 290.363 167.527 284.324C177.77 278.299 177.333 278.417 178.24 281.441ZM132.748 312.177C157.221 366.002 214.509 397.307 274.3 389.526L276.918 389.186V399.968C276.918 409.757 276.83 410.774 275.953 411.039C275.423 411.197 271.269 411.617 266.722 411.97C204.499 416.797 143.649 381.977 115.578 325.481C111.196 316.661 110.708 317.857 121.22 311.615C131.014 305.801 129.823 305.743 132.748 312.177ZM325.694 343.047C338.729 350.712 352.617 358.892 356.558 361.226C360.499 363.56 367.939 367.952 373.092 370.986C378.246 374.02 385.748 378.439 389.765 380.806C396.808 384.959 398.028 386.086 396.223 386.779C395.758 386.956 390.488 389.996 384.511 393.532C378.534 397.069 367.567 403.55 360.141 407.936C352.714 412.321 341.925 418.697 336.166 422.104C330.406 425.51 321.354 430.854 316.049 433.977C310.744 437.099 304.807 440.607 302.856 441.773C300.905 442.937 299.107 443.891 298.86 443.891C298.614 443.891 298.412 417.581 298.412 385.424V326.959L300.204 328.035C301.189 328.626 312.66 335.382 325.694 343.047Z" fill="#84A454"/>
<circle cx="434.5" cy="434.5" r="77.5" fill="white"/>
<path d="M425.077 383.035L389.695 383.035C388.859 383.035 388.182 383.713 388.182 384.549C388.182 385.385 388.859 386.063 389.695 386.063L422.466 386.063C422.7 385.715 422.942 385.369 423.192 385.024L424.3 383.494L425.077 383.035Z" fill="#E91F63"/>
<path d="M414.021 402.627C413.758 403.326 413.481 404.062 413.201 404.832L375.77 404.832C374.934 404.832 374.256 404.154 374.256 403.318C374.256 402.482 374.934 401.805 375.77 401.805L414.365 401.805L414.256 402.001L414.021 402.627Z" fill="#E91F63" fill-opacity="0.7"/>
<path d="M409.981 420.271L369.715 420.271C368.879 420.271 368.201 420.949 368.201 421.785C368.201 422.621 368.879 423.299 369.715 423.299L409.566 423.299C409.574 423.255 409.583 423.211 409.591 423.168L409.6 423.123C409.788 422.168 409.911 421.53 409.988 421.029C409.983 420.775 409.98 420.523 409.981 420.271Z" fill="#E91F63" fill-opacity="0.3"/>
<path d="M411.238 439.041L368.201 439.041C367.365 439.041 366.688 439.719 366.688 440.555C366.688 441.391 367.365 442.068 368.201 442.068L413.542 442.068C413.244 441.681 412.941 441.299 412.632 440.922C412.101 440.306 411.639 439.677 411.238 439.041Z" fill="#E91F63"/>
<path d="M422.95 457.508L372.742 457.508C371.906 457.508 371.229 458.186 371.229 459.021C371.229 459.857 371.906 460.535 372.742 460.535L424.569 460.535C424.27 459.958 423.969 459.383 423.665 458.809C423.424 458.372 423.186 457.938 422.95 457.508Z" fill="#E91F63" fill-opacity="0.6"/>
<path d="M431.847 476.277L384.852 476.277C384.016 476.277 383.338 476.955 383.338 477.791C383.338 478.627 384.016 479.305 384.852 479.305L433.073 479.305C432.672 478.292 432.263 477.283 431.847 476.277Z" fill="#E91F63"/>
<path d="M448.208 374.214C447.614 376.864 443.434 373.631 442.641 376.63C437.96 373.333 442.354 380.198 441.734 380.632L441.697 380.625L441.325 380.512C441.094 380.375 440.764 380.15 440.296 379.717C436.146 381.868 434.892 387.786 430.546 390.353C427.094 395.117 425.379 400.679 422.521 405.826C420.618 410.883 418.819 415.96 419.089 421.445C418.641 425.778 416.273 431.325 419.566 435.056C424.389 440.907 427.989 447.831 431.655 454.491C437.386 465.283 442.074 476.628 445.996 488.138C446.898 485.638 446.326 493.584 447.95 494.447C448.115 490.45 448.554 484.132 449.121 479.267C449.667 466.363 445.729 453.84 445.85 440.978C445.881 440.441 445.903 439.887 445.935 439.34L446.242 437.784L446.052 437.746C446.498 431.468 447.533 424.774 452.918 420.909C458.369 417.22 465.37 417.399 471.458 415.288C472.815 414.809 474.207 414.478 475.59 414.321C475.601 414.32 475.617 414.33 475.628 414.329C479.652 413.905 483.694 414.739 487.508 416.156C487.565 416.177 487.634 416.21 487.69 416.231C488.037 416.362 488.413 416.499 488.755 416.638C491.586 417.462 497.164 419.735 498.603 417.946C495.295 413.77 489.507 412.883 484.894 410.585C484.155 410.294 483.237 409.955 482.306 409.681L477.761 407.68L476.642 407.144L476.635 407.182L460.262 400.521C460.04 400.222 459.796 399.912 459.56 399.673L475.693 404.985L475.708 404.909C476.266 405.154 476.824 405.374 477.399 405.558L477.392 405.596L488.664 410.065C490.534 411.217 492.576 412.2 494.568 412.731C497.805 413.873 501.069 419.684 502.103 420.14C502.599 414.793 497.834 411.417 493.794 409.029C489.21 405.562 481.615 404.167 482.107 397.177C481.987 396.66 481.87 396.144 481.702 395.632L480.249 392.617L480.333 392.594C478.261 388.877 474.922 385.819 471.059 384.136C467.332 381.961 463.103 379.701 458.942 378.313C456.674 382.262 456.563 374.358 452.666 375.932C449.567 375.694 449.823 376.576 447.951 374.214L448.208 374.214ZM467.532 390.906C468.634 391.093 469.845 391.541 471.024 392.225C474.151 394.046 475.857 396.929 474.846 398.663C473.835 400.396 470.466 400.314 467.34 398.485C464.214 396.657 462.497 393.83 463.51 392.084C464.142 390.997 465.698 390.595 467.532 390.906Z" fill="#E91F63"/>
<path d="M466.591 399.038C469.725 401.043 473.309 401.039 474.595 399.029C475.881 397.019 474.383 393.764 471.248 391.759C468.114 389.754 464.531 389.758 463.245 391.768C461.959 393.778 463.457 397.033 466.591 399.038Z" fill="black"/>
<path fill-rule="evenodd" clip-rule="evenodd" d="M471.284 399.026C472.422 399.025 473.049 398.636 473.32 398.214C473.59 397.791 473.68 397.058 473.204 396.025C472.737 395.01 471.793 393.904 470.433 393.034C469.073 392.164 467.673 391.77 466.555 391.771C465.418 391.773 464.79 392.161 464.52 392.584C464.25 393.006 464.16 393.739 464.636 394.772C465.103 395.787 466.047 396.893 467.407 397.763C468.767 398.633 470.167 399.027 471.284 399.026ZM474.595 399.029C473.309 401.039 469.725 401.043 466.591 399.038C463.457 397.033 461.959 393.778 463.245 391.768C464.531 389.758 468.114 389.754 471.248 391.759C474.383 393.764 475.881 397.019 474.595 399.029Z" fill="white"/>
</svg>
